packages/core/src/svgs/bean.svg

<svg width="24" height="24" viewBox="0 0 24 24" fill="none" xmlns="http://www.w3.org/2000/svg">
<g clip-path="url(#clip0_31_6942)">
<path d="M0 0H24V24H0V0Z" fill="url(#paint0_linear_31_6942)"/>
<path fill-rule="evenodd" clip-rule="evenodd" d="M13.6629 5.42991C10.9758 4.4442 8.88005 6.11563 7.79147 8.47705C6.44147 11.3871 6.24862 15.8913 9.3129 17.8542C10.2235 18.404 11.2486 18.7365 12.3085 18.8257C13.3685 18.9149 14.4347 18.7584 15.4243 18.3685C16.0195 18.1595 16.5569 17.813 16.9929 17.3571C18.0215 16.2428 17.49 14.9013 16.8643 13.7656L16.5943 13.3028C16.1786 12.5956 15.75 11.8756 15.7629 11.0185C15.7629 10.7142 15.8443 10.3756 15.9258 10.0371C15.9815 9.80563 16.0372 9.56562 16.0672 9.34277C16.3243 7.40991 15.3815 6.05991 13.6629 5.42991ZM10.5429 9.8742C10.9372 9.8742 11.2586 9.55277 11.2586 9.1542C11.2586 8.75563 10.9372 8.4342 10.5429 8.4342C10.1529 8.4342 9.83148 8.75563 9.83148 9.1542C9.83148 9.55277 10.1529 9.8742 10.5429 9.8742ZM13.4143 10.9285C13.8129 10.9285 14.13 10.6028 14.13 10.2085C14.13 9.80991 13.8129 9.48848 13.4186 9.48848C13.0243 9.48848 12.7029 9.80991 12.7029 10.2085C12.7029 10.6028 13.0243 10.9285 13.4186 10.9285H13.4143Z" fill="#B31F39"/>
</g>
<defs>
<linearGradient id="paint0_linear_31_6942" x1="4.46571" y1="4.16143" x2="29.2071" y2="32.58" gradientUnits="userSpaceOnUse">
<stop stop-color="#1A1E21"/>
<stop offset="1" stop-color="#06060A"/>
</linearGradient>
<clipPath id="clip0_31_6942">
<rect width="24" height="24" fill="white"/>
</clipPath>
</defs>
</svg>

<svg xmlns="http://www.w3.org/2000/svg" width="24" height="24" fill="none" viewBox="0 0 24 24"><g clip-path="url(#a)"><path fill="url(#b)" d="M0 0h24v24H0z"/><path fill="#B31F39" fill-rule="evenodd" d="M13.663 5.43c-2.687-.986-4.783.686-5.872 3.047-1.35 2.91-1.542 7.414 1.522 9.377a6.92 6.92 0 0 0 6.111.515 4 4 0 0 0 1.569-1.012c1.029-1.114.497-2.456-.129-3.591l-.27-.463c-.415-.707-.844-1.427-.831-2.285 0-.304.081-.642.163-.98.056-.232.111-.472.141-.695.257-1.933-.685-3.283-2.404-3.913m-3.12 4.444a.72.72 0 0 0 .716-.72.72.72 0 0 0-.716-.72.717.717 0 0 0-.712.72c0 .399.322.72.712.72m2.871 1.054a.72.72 0 0 0 .716-.72.714.714 0 0 0-.711-.72.72.72 0 0 0 0 1.44z" clip-rule="evenodd"/></g><defs><linearGradient id="b" x1="4.466" x2="29.207" y1="4.161" y2="32.58" gradientUnits="userSpaceOnUse"><stop stop-color="#1A1E21"/><stop offset="1" stop-color="#06060A"/></linearGradient><clipPath id="a"><path fill="#fff" d="M0 0h24v24H0z"/></clipPath></defs></svg>
